X:1
T:Spirti celesti
T:Spirti celesti
T:Gio.Girolamo Kapsperger
C:Gio.Girolamo Kapsperger
%%score [ 1 2 ] { 3 | 4 }
L:1/8
Q:1/4=120
M:4/4
K:F
V:1 treble nm="Soprano 1" snm="S 1"
V:2 treble nm="Soprano 2" snm="S 2"
V:3 treble nm="BC" snm="BC"
V:4 bass 
V:1
 c2 cc c3 G | A4 A2 c2 | c3 c c3 B/A/ | G4 G4 | c2 cc d3 d | e4 f2 e2 | d3 c d3 e | f4 f2 ed | %8
w: 1)Spir- ti ce- le- sti'e|san- ti, spie-|ga- t'i van- ni _|d'o- ro,|voi le pre- ghie- re,'ei|can- ti, por-|ta- t'al som- mo|co- ro, por- *|
w: 2)Por- ta- t'al som- mo|co- ro, vi-|va spe- ran- za'e _|fe- de,|pre- zi- o- so te-|so- ro, de-|gno d'al- ta mer-|ce- de, de- *|
w: 3)De- gno d'al- ta mer-|ce- de, A-|mor ve- ra- ce'e _|ze- lo,|o- ve su- bli- me|sie- de, por-|ta- te'al Re del|Cie- lo, por- *|
w: 4)Por- ta- te'al Re del|Cie- lo, gl'o|tutt'- e'i cor' mor- *|ta- li,|che chi s'in fa- gli|ve- lo, ma|di- spie- gar pon'|l'a- li, mal _|
w: 5)Ma' di- spie- gar pon|l'a- li, al'|im- mor- tal se- *|re- no,|de- sir' i fer- mi'e|fra- li, da|que- st'u- mil ter-|re- no, da _|
w: 6)Da que- st'u- mil ter-|re- no, per|voi sen- ti cus- *|to- di,|d'a- biam' vo- li- no'in|se- no, no-|str'in- ni,'e no- stre|lo- di, no- *|
 c2 BA GF GA | F4 F4 |] %10
w: ta- t'al _ som- * mo _|co- ro.|
w: gno d'al- * ta _ mer- *|ce- de.|
w: ta- te'al _ Re _ del _|Cie- lo.|
w: di- spie- * gar _ pon _|l'a- li.|
w: que- st'u- * mil _ ter- *|re- no.|
w: str'an- ni,'e _ no- * stre _|lo- di.|
V:2
 A2 AA A3 E | F4 F2 A2 | A3 A A3 G/F/ | E4 E4 | E2 EE F3 G | G4 G2 c2 | B3 F B3 B | A4 A2 cB | %8
w: 1)Spir- ti ce- le- sti'e|san- ti, spie-|ga- t'i van- ni _|d'o- ro,|voi le pre- ghie- re,'ei|can- ti, por-|ta- t'al som- mo|co- ro, por- *|
w: 2)Por- ta- ta'al som- mo|co- ro, vi-|va spe- ran- za'e _|fe- de,|pre- zi- o- so te-|so- ro de-|gno d'al- ta mer-|ce- de, de- *|
w: 3)De- gno d'al- ta mer-|ce- de, A-|mor ve- ra- ce'e _|ze- lo,|o- ve su- bli- me|sie- de, por-|ta- te'al Re del|Cie- lo, por- *|
w: 4)Por- ta- te'al Re del|Cie- lo, gl'o|tutt' e'i cor' mor- *|ta- li,|che chi s'in fa- gli|ve- lo, ma|dis- spie- gar pon'|l'al- li, mal _|
w: 5)Ma' di- spie- gar pon|l'al- li, al'|im- mor- tal se- *|re- no|de- sir' i fer- mi'e|fra- li, da|que- st'u- mil ter-|re- no, da _|
w: 6)Da que- st'u- mil ter-|re- no, per|voi sen- ti cus- *|to- di,|d'a- biam' vo- li- no'in|se- no no-|str'in- ni,'e no- stre|lo- di, no- *|
 A2 GF ED E2 | F4 F4 |] %10
w: ta- t'al _ som- * mo|co- ro.|
w: gno d'al- * ta _ mer-|ce- de.|
w: ta- te'al _ Re _ del|Cie- lo.|
w: di- spie- * gar _ pon|l'al- li.|
w: que- st'u- * mil _ ter-|re- no.|
w: str'an- ni'e _ no- * stre|lo- di.|
V:3
 [Ac]4 [Ec]2 [EG]2 | [FAc]6 [CA]2 | [FA]2 [DB]2 [EAc]2 [DF]2 | [EGc]4 [EG]4 | [EGc]4 [Gd]4 | %5
 [EGc]6 [Ec]2 | [DFB]2 [Ec]2 [DGB]4 | [FAc]6 [DB]2 | [EAc]2 [DB]2 [EGc]4 | [CFA]8 |] %10
V:4
 F,4 A,,2 C,2 | F,,4 F,,4 | F,,2 G,,2 A,,2 B,,2 | C,4 C,4 | C,6 =B,,2 | C,6 A,,2 | B,,2 A,,2 G,,4 | %7
 F,,4 F,,2 G,,2 | A,,2 B,,2 C,4 | F,,4 F,,4 |] %10

